assets/images/carbon.svg

<svg width="50" height="50" viewBox="0 0 50 50" shape-rendering="auto" fill="none" xmlns="http://www.w3.org/2000/svg">
<rect width="50" height="50" fill="none"/>
<path d="M35.0169 21.0592V17.8999L38.1225 16.2783L41.228 17.8999V21.0592L38.1225 22.6808L35.0169 21.0592Z" fill="black" stroke="black"/>
<path d="M44.6739 22.5805L44.6507 20.6764L46.5422 19.6571L48.4579 20.6258L48.4811 22.5299L46.5896 23.5491L44.6739 22.5805Z" fill="black" stroke="black"/>
<path d="M42.0431 11.852L42.0364 12.9195L40.9303 13.4876L39.8314 12.9044L39.8381 11.8369L40.9442 11.2688L42.0431 11.852Z" fill="black" stroke="black"/>
<path d="M30.9351 17.0233L30.8731 18.0886L29.7392 18.5935L28.6721 17.9491L28.734 16.8837L29.868 16.3789L30.9351 17.0233Z" fill="black" stroke="black"/>
<path d="M44.9633 8.64624L44.9624 8.41547L45.2631 8.25688L45.5649 8.41287L45.5658 8.64364L45.2652 8.80223L44.9633 8.64624Z" fill="black" stroke="black"/>
<path d="M36.6461 6.2194L36.6713 5.15225L37.787 4.60511L38.8756 5.20896L38.8504 6.27611L37.7347 6.82325L36.6461 6.2194Z" fill="black" stroke="black"/>
<path fill-rule="evenodd" clip-rule="evenodd" d="M13.5456 5.17536L13.4113 5.1637L13.2893 5.22115L5.58828 8.84847L5.40107 8.93665L5.33093 9.13134L0.394379 22.8345L0.328323 23.0179L0.403786 23.1976L9.28958 44.3569L9.41826 44.6633H9.75058H36.2105H36.4539L36.604 44.4718L42.9228 36.4111L43.0293 36.2752V36.1026V26.4298V26.302L42.968 26.19L41.2622 23.0696L40.3756 23.5326L42.0293 26.5575V35.4518L21.0128 29.8483L14.1851 6.23467L31.7536 7.76057L36.1055 15.7214L36.9921 15.2584L32.5025 7.04579L32.374 6.81069L32.1071 6.7875L13.5456 5.17536ZM20.0597 30.1521L13.1849 6.3757L6.20161 9.66496L1.40125 22.9901L9.88142 43.1835L20.0597 30.1521ZM35.9671 43.6633H10.7756L20.8016 30.8269L41.6683 36.3905L35.9671 43.6633Z" fill="black"/>
</svg>

<?xml version="1.0" encoding="utf-8"?>
<svg version="1.1" id="Layer_1" shape-rendering="auto"
	 xmlns="http://www.w3.org/2000/svg" xmlns:xlink="http://www.w3.org/1999/xlink" x="0px" y="0px" viewBox="0 0 50 50"
	 style="enable-background:new 0 0 50 50;" xml:space="preserve">
<style type="text/css">
	.st0{fill:none;}
	.st1{stroke:#000000;}
</style>
<rect class="st0" width="50" height="50"/>
<path class="st1" d="M35,21.1v-3.2l3.1-1.6l3.1,1.6v3.2l-3.1,1.6L35,21.1z"/>
<path class="st1" d="M44.7,22.6l0-1.9l1.9-1l1.9,1l0,1.9l-1.9,1L44.7,22.6z"/>
<path class="st1" d="M42,11.9l0,1.1l-1.1,0.6l-1.1-0.6l0-1.1l1.1-0.6L42,11.9z"/>
<path class="st1" d="M30.9,17l-0.1,1.1l-1.1,0.5l-1.1-0.6l0.1-1.1l1.1-0.5L30.9,17z"/>
<path class="st1" d="M45,8.6l0-0.2l0.3-0.2l0.3,0.2l0,0.2l-0.3,0.2L45,8.6z"/>
<path class="st1" d="M36.6,6.2l0-1.1l1.1-0.5l1.1,0.6l0,1.1l-1.1,0.5L36.6,6.2z"/>
<path d="M13.5,5.2l-0.1,0l-0.1,0.1L5.6,8.8L5.4,8.9L5.3,9.1L0.4,22.8L0.3,23l0.1,0.2l8.9,21.2l0.1,0.3h0.3h26.5h0.2l0.2-0.2l6.3-8.1
	l0.1-0.1v-0.2v-9.7v-0.1L43,26.2l-1.7-3.1l-0.9,0.5l1.7,3v8.9l-21-5.6L14.2,6.2l17.6,1.5l4.4,8l0.9-0.5L32.5,7l-0.1-0.2l-0.3,0
	L13.5,5.2z M20.1,30.2L13.2,6.4l-7,3.3L1.4,23l8.5,20.2L20.1,30.2z M36,43.7H10.8l10-12.8l20.9,5.6L36,43.7z"/>
</svg>
